src/landing/containers/MainScreen/components/Advantages/assets/donate.svg

<svg width="120" height="120" viewBox="0 0 120 120" fill="none" xmlns="http://www.w3.org/2000/svg">
    <path d="M85 46C90.5229 46 95 41.7467 95 36.5C95 31.2533 90.5229 27 85 27C79.4772 27 75 31.2533 75 36.5C75 41.7467 79.4772 46 85 46Z" fill="url(#paint0_linear)"/>
    <path d="M83.9877 50C75.1576 50 68 56.643 68 64.8383V84.5162C68 85.338 68.7133 86 69.5988 86H98.4012C99.2867 86 100 85.338 100 84.5162V64.8383C99.9754 56.6658 92.8178 50 83.9877 50Z" fill="url(#paint1_linear)"/>
    <path d="M34 46C39.5228 46 44 41.7467 44 36.5C44 31.2533 39.5228 27 34 27C28.4772 27 24 31.2533 24 36.5C24 41.7467 28.4772 46 34 46Z" fill="url(#paint2_linear)"/>
    <path d="M34.9877 50C26.1576 50 19 56.643 19 64.8383V84.5162C19 85.338 19.7133 86 20.5988 86H49.4012C50.2867 86 51 85.338 51 84.5162V64.8383C50.9754 56.6658 43.8178 50 34.9877 50Z" fill="url(#paint3_linear)"/>
    <path d="M60.0001 32C54.4812 32 50.0001 36.4811 50.0001 42C50.0001 47.5189 54.4812 52 60.0001 52C65.5189 52 70.0001 47.5189 70.0001 42C70.0001 36.4811 65.5189 32 60.0001 32Z" fill="white"/>
    <path d="M59.619 56.7931C51.0714 56.7931 44.1428 63.3155 44.1428 71.3621V90.6827C44.1428 91.4896 44.8333 92.1396 45.6904 92.1396H73.5714C74.4285 92.1396 75.119 91.4896 75.119 90.6827V71.3621C75.0952 63.3155 68.1666 56.7931 59.619 56.7931Z" fill="white"/>
    <path fill-rule="evenodd" clip-rule="evenodd" d="M50.0001 42C50.0001 36.4811 54.4812 32 60.0001 32C65.5189 32 70.0001 36.4811 70.0001 42C70.0001 47.5189 65.5189 52 60.0001 52C54.4812 52 50.0001 47.5189 50.0001 42ZM66.2265 42C66.2265 38.5566 63.4198 35.7736 60 35.7736C56.5802 35.7736 53.7736 38.5566 53.7736 42C53.7736 45.4434 56.5802 48.2264 60 48.2264C63.4434 48.2264 66.2265 45.4434 66.2265 42Z" fill="url(#paint4_linear)"/>
    <path fill-rule="evenodd" clip-rule="evenodd" d="M45.6667 93.9328H73.5715C75.4524 93.9328 77.0001 92.4759 76.9763 90.6828V71.3621C76.9763 62.3517 69.1667 55 59.5953 55C50.0239 55 42.2144 62.3293 42.2144 71.3621V90.6828C42.2144 92.4759 43.762 93.9328 45.6667 93.9328ZM73.1905 90.3465H46.0476V71.362C46.0476 64.3241 52.1428 58.5862 59.619 58.5862C67.0952 58.5862 73.1905 64.3241 73.1905 71.362V90.3465Z" fill="url(#paint5_linear)"/>
    <defs>
        <linearGradient id="paint0_linear" x1="100" y1="27" x2="100" y2="86" gradientUnits="userSpaceOnUse">
            <stop stop-color="#4070FF"/>
            <stop offset="1" stop-color="#365FD9"/>
        </linearGradient>
        <linearGradient id="paint1_linear" x1="100" y1="27" x2="100" y2="86" gradientUnits="userSpaceOnUse">
            <stop stop-color="#4070FF"/>
            <stop offset="1" stop-color="#365FD9"/>
        </linearGradient>
        <linearGradient id="paint2_linear" x1="100" y1="27" x2="100" y2="86" gradientUnits="userSpaceOnUse">
            <stop stop-color="#4070FF"/>
            <stop offset="1" stop-color="#365FD9"/>
        </linearGradient>
        <linearGradient id="paint3_linear" x1="100" y1="27" x2="100" y2="86" gradientUnits="userSpaceOnUse">
            <stop stop-color="#4070FF"/>
            <stop offset="1" stop-color="#365FD9"/>
        </linearGradient>
        <linearGradient id="paint4_linear" x1="76.9765" y1="32" x2="76.9765" y2="93.9328" gradientUnits="userSpaceOnUse">
            <stop stop-color="#FFA526"/>
            <stop offset="1" stop-color="#FF860D"/>
        </linearGradient>
        <linearGradient id="paint5_linear" x1="76.9765" y1="32" x2="76.9765" y2="93.9328" gradientUnits="userSpaceOnUse">
            <stop stop-color="#FFA526"/>
            <stop offset="1" stop-color="#FF860D"/>
        </linearGradient>
    </defs>
</svg>

<svg width="120" height="120" fill="none" xmlns="http://www.w3.org/2000/svg"><path d="M85 46c5.523 0 10-4.253 10-9.5S90.523 27 85 27s-10 4.253-10 9.5S79.477 46 85 46z" fill="url(#paint0_linear)"/><path d="M83.988 50C75.158 50 68 56.643 68 64.838v19.678c0 .822.713 1.484 1.599 1.484H98.4c.886 0 1.599-.662 1.599-1.484V64.838C99.975 56.666 92.818 50 83.988 50z" fill="url(#paint1_linear)"/><path d="M34 46c5.523 0 10-4.253 10-9.5S39.523 27 34 27s-10 4.253-10 9.5S28.477 46 34 46z" fill="url(#paint2_linear)"/><path d="M34.988 50C26.158 50 19 56.643 19 64.838v19.678c0 .822.713 1.484 1.599 1.484H49.4c.886 0 1.599-.662 1.599-1.484V64.838C50.975 56.666 43.818 50 34.988 50z" fill="url(#paint3_linear)"/><path d="M60 32c-5.519 0-10 4.481-10 10s4.481 10 10 10 10-4.481 10-10-4.481-10-10-10zm-.381 24.793c-8.548 0-15.476 6.523-15.476 14.57v19.32c0 .807.69 1.457 1.547 1.457h27.881c.858 0 1.548-.65 1.548-1.457v-19.32c-.024-8.047-6.952-14.57-15.5-14.57z" fill="#fff"/><path fill-rule="evenodd" clip-rule="evenodd" d="M50 42c0-5.519 4.481-10 10-10s10 4.481 10 10-4.481 10-10 10-10-4.481-10-10zm16.227 0c0-3.443-2.807-6.226-6.227-6.226-3.42 0-6.226 2.783-6.226 6.226S56.58 48.226 60 48.226A6.22 6.22 0 0066.227 42z" fill="url(#paint4_linear)"/><path fill-rule="evenodd" clip-rule="evenodd" d="M45.667 93.933H73.57c1.881 0 3.43-1.457 3.405-3.25v-19.32c0-9.011-7.81-16.363-17.38-16.363-9.572 0-17.382 7.33-17.382 16.362v19.32c0 1.794 1.548 3.25 3.453 3.25zm27.523-3.587H46.049V71.363c0-7.038 6.095-12.776 13.571-12.776s13.572 5.738 13.572 12.776v18.985z" fill="url(#paint5_linear)"/><defs><linearGradient id="paint0_linear" x1="100" y1="27" x2="100" y2="86" gradientUnits="userSpaceOnUse"><stop stop-color="#4070FF"/><stop offset="1" stop-color="#365FD9"/></linearGradient><linearGradient id="paint1_linear" x1="100" y1="27" x2="100" y2="86" gradientUnits="userSpaceOnUse"><stop stop-color="#4070FF"/><stop offset="1" stop-color="#365FD9"/></linearGradient><linearGradient id="paint2_linear" x1="100" y1="27" x2="100" y2="86" gradientUnits="userSpaceOnUse"><stop stop-color="#4070FF"/><stop offset="1" stop-color="#365FD9"/></linearGradient><linearGradient id="paint3_linear" x1="100" y1="27" x2="100" y2="86" gradientUnits="userSpaceOnUse"><stop stop-color="#4070FF"/><stop offset="1" stop-color="#365FD9"/></linearGradient><linearGradient id="paint4_linear" x1="76.977" y1="32" x2="76.977" y2="93.933" gradientUnits="userSpaceOnUse"><stop stop-color="#FFA526"/><stop offset="1" stop-color="#FF860D"/></linearGradient><linearGradient id="paint5_linear" x1="76.977" y1="32" x2="76.977" y2="93.933" gradientUnits="userSpaceOnUse"><stop stop-color="#FFA526"/><stop offset="1" stop-color="#FF860D"/></linearGradient></defs></svg>
